X: 31504
T: Paddy's
R: polka
M: 2/4
K: Aminor
A/B/c/d/|:"Amin"eA AG/A/|"G"BG Bd|"Amin"eA AG/A/|BA G2|
"Amin"eA AG/A/|"G"BG Bd|"Amin"e>f ed|1 "G"BA "Amin"A/B/c/d/:|2 "G"BA "Amin"A2||
|:"Amin"ea ag/a/|ba ag|ea ag/a/|"G"ba g2|
"Amin"ea ag/a/|"G"ba ag|"Amin"e>f ed|1 "G"BA "Amin"A2:|2 "G"BA "Amin"A/B/c/d/||

